svgs/sharp-regular/mortar-pestle.svg

<svg xmlns="http://www.w3.org/2000/svg" viewBox="0 0 512 512"><!--! Font Awesome Pro 6.6.0 by @fontawesome - https://fontawesome.com License - https://fontawesome.com/license (Commercial License) Copyright 2024 Fonticons, Inc. --><path d="M252.3 160L469.5 0l40.6 47.2L397.3 160l-144.9 0zM480 256c0 63.2-25.4 116.1-73.4 150.3c-12.6 9-26.7 16.6-42.3 22.9c6.8 10.3 11.6 22.1 14.7 34.8c.4 1.6 .8 3.2 1.1 4.8c2.8 13.5 4 28 4 43.2l-48 0-160 0-48 0c0-15.2 1.2-29.7 4-43.2c.3-1.6 .7-3.2 1.1-4.8c3.1-12.7 7.9-24.5 14.7-34.8c-15.6-6.2-29.8-13.9-42.3-22.9C57.4 372.1 32 319.2 32 256l0-16-8 0L0 240l0-48 24 0 8 0 16 0 32 0 352 0 32 0 16 0 8 0 24 0 0 48-24 0-8 0 0 16zM324.2 455.6l-32.5-49.2 54.8-21.8C402.6 362.2 432 317 432 256l0-16L80 240l0 16c0 61 29.4 106.2 85.6 128.6l54.8 21.8-32.5 49.2c-1.6 2.4-3.1 5.2-4.4 8.4l145.1 0c-1.3-3.1-2.8-5.9-4.4-8.4z"/></svg>

<svg xmlns="http://www.w3.org/2000/svg" viewBox="0 0 512 512"><!--! Font Awesome Pro 6.4.2 by @fontawesome - https://fontawesome.com License - https://fontawesome.com/license (Commercial License) Copyright 2023 Fonticons, Inc. --><path d="M252.3 160L469.5 0l40.6 47.2L397.3 160H252.3zM480 256c0 63.2-25.4 116.1-73.4 150.3c-12.6 9-26.7 16.6-42.3 22.9c6.8 10.3 11.6 22.1 14.7 34.8c.4 1.6 .8 3.2 1.1 4.8c2.8 13.5 4 28 4 43.2H336 176 128c0-15.2 1.2-29.7 4-43.2c.3-1.6 .7-3.2 1.1-4.8c3.1-12.7 7.9-24.5 14.7-34.8c-15.6-6.2-29.8-13.9-42.3-22.9C57.4 372.1 32 319.2 32 256V240H24 0V192H24h8H48 80 432h32 16 8 24v48H488h-8v16zM324.2 455.6l-32.5-49.2 54.8-21.8C402.6 362.2 432 317 432 256V240H80v16c0 61 29.4 106.2 85.6 128.6l54.8 21.8-32.5 49.2c-1.6 2.4-3.1 5.2-4.4 8.4H328.6c-1.3-3.1-2.8-5.9-4.4-8.4z"/></svg>
